Flat-Remix-Dark/apps/scalable/9gag.svg

<svg xmlns="http://www.w3.org/2000/svg" width="384pt" height="384pt" version="1.1" viewBox="0 0 384 384">
 <g>
  <path style="fill:rgb(0%,0%,0%)" d="M 61.566406 23.25 L 322.433594 23.25 C 343.59375 23.25 360.75 40.40625 360.75 61.566406 L 360.75 322.433594 C 360.75 343.59375 343.59375 360.75 322.433594 360.75 L 61.566406 360.75 C 40.40625 360.75 23.25 343.59375 23.25 322.433594 L 23.25 61.566406 C 23.25 40.40625 40.40625 23.25 61.566406 23.25 Z M 61.566406 23.25"/>
  <path style="fill:rgb(100%,100%,100%)" d="M 151.199219 147.410156 C 164.824219 139.679688 178.363281 131.769531 191.960938 123.980469 C 205.632812 131.785156 219.257812 139.679688 232.945312 147.457031 C 219.257812 155.277344 205.617188 163.125 191.960938 170.960938 C 178.394531 163.082031 164.722656 155.347656 151.199219 147.410156 Z M 91.988281 135.886719 C 92.015625 143.707031 92.003906 151.542969 92.003906 159.378906 C 125.355469 178.382812 158.605469 197.550781 191.960938 216.53125 C 212.054688 204.933594 232.148438 193.320312 252.214844 181.675781 C 252.289062 197.039062 252.128906 212.386719 252.304688 227.746094 C 232.328125 239.636719 212.011719 250.957031 191.960938 262.730469 C 171.867188 251.046875 151.667969 239.507812 131.53125 227.894531 C 118.210938 235.417969 104.9375 243.003906 91.648438 250.574219 C 124.960938 270.023438 158.546875 289 191.960938 308.285156 C 225.285156 289.160156 258.699219 270.214844 291.964844 250.972656 C 291.890625 212.589844 291.90625 174.210938 291.949219 135.828125 C 258.667969 116.617188 225.300781 97.535156 191.976562 78.394531 C 158.636719 97.519531 125.3125 116.6875 91.988281 135.886719 Z M 91.988281 135.886719"/>
 </g>
 <path style="fill:#ffffff;opacity:0.3" d="M 82.087891 31 C 53.874357 31 31 53.874357 31 82.087891 L 31 92.087891 C 31 63.874351 53.874357 41 82.087891 41 L 429.91211 41 C 458.12566 41 481 63.874351 481 92.087891 L 481 82.087891 C 481 53.874357 458.12567 31 429.91211 31 L 82.087891 31 z" transform="scale(0.75)"/>
 <path style="fill:#ffffff;opacity:0.5" d="M 31 417.91211 L 31 429.91211 C 31 458.12566 53.874355 481 82.087891 481 L 429.91211 481 C 458.12566 481 481 458.12566 481 429.91211 L 481 417.91211 C 481 446.12566 458.12566 469 429.91211 469 L 82.087891 469 C 53.874344 469 31 446.12566 31 417.91211 z" transform="scale(0.75)"/>
</svg>

<svg width="512" height="512" version="1.1" viewBox="0 0 384 384" xmlns="http://www.w3.org/2000/svg"><path d="m61.566 30.75h260.87c21.16 0 38.316 17.156 38.316 38.316v260.87c0 21.16-17.156 38.316-38.316 38.316h-260.87c-21.16 0-38.316-17.156-38.316-38.316v-260.87c0-21.16 17.156-38.316 38.316-38.316z" opacity=".3"/><path d="m61.566 23.25h260.87c21.16 0 38.316 17.156 38.316 38.316v260.87c0 21.16-17.156 38.316-38.316 38.316h-260.87c-21.16 0-38.316-17.156-38.316-38.316v-260.87c0-21.16 17.156-38.316 38.316-38.316z"/><path d="m151.2 147.41c13.625-7.7305 27.164-15.641 40.762-23.43 13.672 7.8047 27.297 15.699 40.984 23.477-13.688 7.8203-27.328 15.668-40.984 23.504-13.566-7.8789-27.238-15.613-40.762-23.551zm-59.211-11.523c0.02734 7.8203 0.01563 15.656 0.01563 23.492 33.352 19.004 66.602 38.172 99.957 57.152 20.094-11.598 40.188-23.211 60.254-34.855 0.0742 15.363-0.0859 30.711 0.0898 46.07-19.977 11.891-40.293 23.211-60.344 34.984-20.094-11.684-40.293-23.223-60.43-34.836-13.32 7.5234-26.594 15.109-39.883 22.68 33.313 19.449 66.898 38.426 100.31 57.711 33.324-19.125 66.738-38.07 100-57.312-0.0742-38.383-0.0586-76.762-0.0156-115.14-33.281-19.211-66.648-38.293-99.973-57.434-33.34 19.125-66.664 38.293-99.988 57.492z" fill="#fff"/></svg>
